src/assets/svg/ic_files.svg

<svg xmlns="http://www.w3.org/2000/svg" width="16" height="16">
    <path d="M3 0v1h10V0H3zM1 2v1h14V2H1zM0 4v11h16V4H0zm3 3h8v1H3V7zm0 2h10v1H3V9zm0 2h10v1H3v-1z"/>
</svg>

<svg id="icons" xmlns="http://www.w3.org/2000/svg" width="16" height="16" viewBox="0 0 16 16"><title>files</title><path
     d="M 3 0 L 3 1 L 13 1 L 13 0 L 3 0 z M 1 2 L 1 3 L 15 3 L 15 2 L 1 2 z M 0 4 L 0 15 L 16 15 L 16 4 L 0 4 z M 3 7 L 11 7 L 11 8 L 3 8 L 3 7 z M 3 9 L 13 9 L 13 10 L 3 10 L 3 9 z M 3 11 L 13 11 L 13 12 L 3 12 L 3 11 z "
     id="path5" /></svg>
